X:1
T:L'Auvergnate
%%score { 1 | 2 }
L:1/8
M:2/4
C:Harmony Myrna Luff
K:G
V:1 treble
V:2 treble
V:1
 D |: GG F/G/A/F/ | GG A/B/c/A/ | BG AG | F/E/D D2 | GG (F/G/A/)F/ | GG A/B/c/A/ | BG AF | GG G :: %9
 B |: dd cB | A>B cA | BG AG | F/E/D D2 | dd cB | A>B cA | BG AF | GG G :|
V:2
 d | BB A/B/c/A/ | BB c/d/e/c/ | dg fe | d/e/f dA | BB A/B/c/A/ | BB c/d/e/c/ | dg fd | BB B :: %9
 G | BB ed | c>d ef | dg cB | A/G/F F2 | BB ed | c>d ef | d/e/f/g/ fd | BB B :| 

